!!!COM:	la Rue, Pierre de
!!!CDT:	~1452///-1518/11/20
!!!OPR:	Missa O gloriosa domina
!!!ONM:	3
!!!OTL:	Credo
!!!AGN:	Mass; Credo
!!!SCT:	Rue1021c
!!!SCA:	Rue1021c
!!!voices-OPR:	4
!!!voices:	4
**kern	**kern	**kern	**kern
*staff4	*staff3	*staff2	*staff1
*Ivox	*Ivox	*Ivox	*Ivox
*I"Bassus	*I"Tenor	*I"Contra	*I"Discantus
*I'B	*I'T	*I'C	*I'D
*>[A,B]	*>[A,B]	*>[A,B]	*>[A,B]
*>A	*>A	*>A	*>A
*clefF4	*clefGv2	*clefG2	*clefG2
*k[]	*k[]	*k[]	*k[]
*M3/1	*M3/1	*M3/1	*M3/1
*met(O)	*met(O)	*met(O)	*met(O)
!!section: Patrem omnipotentem
!!!OMD: Patrem omnipotentem
=1-	=1-	=1-	=1-
0.r	0d	0.r	0dd
.	1d	.	1a
=2	=2	=2	=2
0.r	1A	0.r	2r
.	.	.	2a/
.	2A/	.	2cc\
.	2B\	.	2dd\
.	2.c\	.	1ee
.	4d\	.	.
=3	=3	=3	=3
0.r	0d	0.r	1.ff
.	.	.	4ee\
.	.	.	4dd\
.	1r	.	1dd
=4	=4	=4	=4
0.r	1f	0.r	1r
.	2f\	.	1cc
.	1a	.	.
.	.	.	2cc\
.	2a\	.	[2ee\
=5	=5	=5	=5
0.r	2g\	0.r	2ee\]
.	2f\	.	2dd\
.	2.a\	.	2cc\
.	.	.	1ee
.	4g\	.	.
.	2e\	.	.
.	[2f\	.	4dd\
.	.	.	4cc\
=6	=6	=6	=6
0.r	2f\]	0.r	2dd\
.	1a	.	1cc
.	4g\	.	1ff
.	4f\	.	.
.	1g	.	.
.	.	.	2ee\
=7	=7	=7	=7
0.r	1f	0.r	0ff
.	2r	.	.
.	1f	.	.
.	.	.	1r
.	2f\	.	.
=8	=8	=8	=8
0.r	2.g\	0.r	2r
.	.	.	1dd
.	4f\	.	.
.	4g\	.	.
.	4f\	.	.
.	4e\	.	2dd\
.	4d\	.	.
.	1c	.	2.ee\
.	.	.	4dd\
=9	=9	=9	=9
0.r	2r	0.r	4ee\
.	.	.	4dd\
.	1g	.	4cc\
.	.	.	4b\
.	.	.	1a
.	2f\	.	.
.	2e\	.	2g/
.	[2a\	.	[2cc\
=10	=10	=10	=10
0.r	2a\]	0.r	2cc\]
.	2g\	.	2b\
.	2f\	.	2a/
.	1g	.	4g/
.	.	.	4f/
.	.	.	2e/
.	2f\	.	2d/
=11	=11	=11	=11
0.r	2e\	0.r	2r
.	4d\	.	2g/
.	4c\	.	.
.	2B\	.	2g/
.	2A/	.	2.a/
.	2r	.	.
.	.	.	4g/
.	2d\	.	4f/
.	.	.	4e/
=12	=12	=12	=12
0.r	2d\	0.r	2f/
.	2.e\	.	2.g/
.	4d\	.	4f/
.	4c#i\	.	4e/
.	4B\	.	4d/
.	1c#i	.	1e
=13	=13	=13	=13
2r	0d	1r	1d
1d	.	.	.
.	.	2r	1r
2d\	.	1a	.
2d\	1r	.	1r
2d\	.	2a/	.
=14	=14	=14	=14
2.A\	0.r	2a/	0.r
.	.	2a/	.
4B\	.	.	.
4c\	.	2.e/	.
4A\	.	.	.
1c	.	.	.
.	.	4f/	.
.	.	4g/	.
.	.	4e/	.
4B\	.	[2g/	.
4A\	.	.	.
=15	=15	=15	=15
1B	0.r	2g/]	0.r
.	.	4f/	.
.	.	4e/	.
2r	.	1f	.
1A	.	.	.
.	.	2e/	.
2G\	.	[2e/	.
=16	=16	=16	=16
2A\	0.r	2e/]	0.r
2F\	.	2d/	.
2E\	.	2e/	.
2.A\	.	4d/	.
.	.	4c/	.
.	.	1B	.
4G#i\	.	.	.
2G#i\	.	.	.
=17	=17	=17	=17
1A	0.r	2r	0.r
.	.	2A/	.
2r	.	1c	.
2A\	.	.	.
1c	.	2A/	.
.	.	[2e/	.
=18	=18	=18	=18
2A\	0.r	4e/]	0.r
.	.	4d/	.
2.e\	.	4c/	.
.	.	4B/	.
.	.	2A/	.
4d\	.	.	.
4c\	.	2e/	.
4B\	.	.	.
2A\	.	2.f/	.
2F\	.	.	.
.	.	4e/	.
=19	=19	=19	=19
2G\	0.r	4e/	0.r
.	.	4d/	.
2A\	.	2.f/	.
2.D\	.	.	.
.	.	4e/	.
.	.	1d	.
4F\	.	.	.
1E	.	.	.
.	.	2c#i/	.
=20	=20	=20	=20
0D	0f	0.d	2r
.	.	.	1dd
.	.	.	2a/
2r	1f	.	2b\
[2d\	.	.	2a/
=21	=21	=21	=21
2d\]	1.f	0.r	2.ff\
2A\	.	.	.
.	.	.	4ee\
2B\	.	.	2dd\
2A\	2f\	.	2cc\
1d	1f	.	1ff
=22	=22	=22	=22
2c\	0.g	1r	0ee
2c\	.	.	.
2c\	.	2r	.
2c\	.	2e/	.
2.e\	.	2e/	2r
.	.	2e/	2ee\
4d\	.	.	.
=23	=23	=23	=23
1c	0.r	2.g/	2ee\
.	.	.	2ee\
.	.	4f/	.
2G\	.	4e/	2.gg\
.	.	4d/	.
1c	.	2e/	.
.	.	.	4ff\
.	.	2c/	2ee\
2B\	.	[2g/	2dd\
=24	=24	=24	=24
2c\	2r	4g/]	2ee\
.	.	4f/	.
4B\	2g\	1e	4dd\
4A\	.	.	4cc\
1B	2g\	.	1dd
.	2g\	2d/	.
[1A	2.a\	1e	[1cc
.	4g\	.	.
=25	=25	=25	=25
1A]	2f\	2r	1cc]
.	2e\	2a/	.
2r	2f\	2a/	2r
2A\	4e\	2a/	2cc\
.	4d\	.	.
2A\	2e\	1a	2cc\
2A\	2e\	.	2cc\
=26	=26	=26	=26
2.B\	1d	1f	2.dd\
4G\	.	.	4b\
0G	2r	2r	1b
.	2d\	2g/	.
.	2d\	2g/	2r
.	2d\	2g/	2b\
=27	=27	=27	=27
2r	2.e\	2.g/	2b\
2G\	.	.	2b\
.	4c\	4f/	.
2.A\	1c	1e	2.cc\
4A\	.	.	4a/
2F\	2r	2r	1a
2E\	2c\	2e/	.
=28	=28	=28	=28
2D\	1.f	1.a	2r
1d	.	.	2a/
.	.	.	1.dd
2d\	2f\	2a/	.
1d	2f\	2a/	.
.	2f\	2a/	2dd\
=29	=29	=29	=29
1A	2.e\	2.a/	2.cc\
.	4c\	4e/	4a/
1r	4d\	4f/	2b\
.	4c\	4e/	.
.	4B\	1a	2a/
.	4A/	.	.
1r	1B	.	2r
.	.	2g/	2dd\
=30	=30	=30	=30
1r	2A/	2.a/	2.cc\
.	4B\	.	.
.	4c\	4g/	4b\
1r	4d\	2f/	4b\
.	4c\	.	4a/
.	4B\	2e/	1a
.	4A/	.	.
2r	1B	2.d/	.
2G\	.	.	2g/
.	.	4c/	.
=31	=31	=31	=31
1F	2.f\	2A/	0a
.	.	2.a/	.
.	4e\	.	.
2C/	4e\	.	.
.	4d\	4g/	.
2D\	1d	2f/	.
1A	.	1e	1r
.	2c#i\	.	.
=32	=32	=32	=32
0D	0.d	1f	2r
.	.	.	2.a/
.	.	2r	.
.	.	.	4a/
.	.	2.d/	2a/
1r	.	.	2a/
.	.	4d/	.
.	.	2d/	[2b\
=33	=33	=33	=33
0.r	0.r	2d/	2b\]
.	.	1e	1g
.	.	1c	1cc
.	.	2f/	2cc\
=34	=34	=34	=34
0.r	0.r	2.f/	2cc\
.	.	.	2.cc\
.	.	4d/	.
.	.	4e/	.
.	.	4f/	4a/
.	.	2g/	4b\
.	.	.	4cc\
.	.	2.f/	2dd\
.	.	.	[2cc\
.	.	4e/	.
=35	=35	=35	=35
0.r	0.r	4f/	4cc\]
.	.	4g/	4b\
.	.	4a/	4cc\
.	.	4b-i\	4dd\
.	.	2a/	4ee\
.	.	.	4ff\
.	.	4g/	1ee
.	.	4f/	.
.	.	2e/	.
.	.	2a/	4dd\
.	.	.	4cc\
=36	=36	=36	=36
0.r	0.r	2g/	2b\
.	.	2g/	2ee\
.	.	2b\	2dd\
.	.	2b\	2dd\
.	.	4a/	2ff\
.	.	4g/	.
.	.	[2a/	2ff\
=37	=37	=37	=37
0.r	0.r	2a/]	4ee\
.	.	.	4dd\
.	.	4g/	1ee
.	.	4f/	.
.	.	4g/	.
.	.	4f/	.
.	.	4e/	1dd
.	.	4d/	.
.	.	1e	.
.	.	.	2cc#i\
=38	=38	=38	=38
1d	1r	0d	0dd
2d\	1f	.	.
1f	.	.	.
.	2f\	1r	1r
[2F\	[2a\	.	.
=39	=39	=39	=39
4F\]	2a\]	0.r	0.r
4G\	.	.	.
4A\	4g\	.	.
4B-i\	4f\	.	.
2G\	2e\	.	.
1F	2f\	.	.
.	2.c\	.	.
[2c\	.	.	.
.	4d\	.	.
=40	=40	=40	=40
4c\]	4e\	0.r	0.r
4A\	4f\	.	.
2B\	2d\	.	.
2c\	2c\	.	.
2A\	2.f\	.	.
1G	.	.	.
.	4d\	.	.
.	2e\	.	.
=41	=41	=41	=41
0F	1f	0.r	0.r
.	2r	.	.
.	2c\	.	.
2r	2c\	.	.
2F\	[2d\	.	.
=42	=42	=42	=42
2F\	4d\]	0.r	0.r
.	4c\	.	.
2.G\	4B\	.	.
.	4A/	.	.
.	4B\	.	.
4F\	4A/	.	.
4E\	2d\	.	.
4D\	.	.	.
2E\	2c\	.	.
2D\	[2f\	.	.
=43	=43	=43	=43
2A\	2f\]	0.r	0.r
2A\	2e\	.	.
2B\	2d\	.	.
2G\	2.g\	.	.
2.c\	.	.	.
.	4f\	.	.
.	4e\	.	.
4B\	4d\	.	.
=44	=44	=44	=44
4A\	1c	1f	2r
4G\	.	.	.
2F\	.	.	2a/
2A\	2r	2f/	2a/
2G\	2B\	2.g/	2b\
2E\	2B\	.	2g/
.	.	4f/	.
[2A\	2A/	4e/	[2cc\
.	.	4d/	.
=45	=45	=45	=45
2A\]	2.c\	2c/	4cc\]
.	.	.	4b\
1F	.	2.f/	4a/
.	4B\	.	4g/
.	2A/	.	2a/
.	.	4e/	.
2G\	2B\	1d	1g
1E	1G	.	.
.	.	2c#i/	2e/
=46	=46	=46	=46
0.D	2A/	0d	0f
.	2.B-i\	.	.
.	4A/	.	.
.	4A/	.	.
.	4G/	.	.
.	1A	1r	2r
.	.	.	2a/
=47	=47	=47	=47
1G	2G/	1d	2b\
.	2B\	.	2dd\
2G\	2B\	2d/	2dd\
2G\	2B\	2d/	1b
2G\	2B\	2d/	.
2G\	2B\	[2d/	4a/
.	.	.	4g/
=48	=48	=48	=48
0D	0A	2d/]	2f/
.	.	1f	2.d/
.	.	.	4e/
.	.	4e/	4f/
.	.	4d/	4g/
1D	1d	2f/	2a/
.	.	4e/	2b\
.	.	4d/	.
=49	=49	=49	=49
2.A\	2.e\	1c	1cc
4B\	4e\	.	.
2c\	2e\	1r	1r
2d\	1f	.	.
1B-	.	1r	1dd
.	4e\	.	.
.	4d\	.	.
=50	=50	=50	=50
2.A\	1c	1a	2.ee\
4B\	.	.	4ee\
2c\	1r	2a/	2ee\
2d\	.	2d/	1ff
1B	1d	2f/	.
.	.	2g/	4ee\
.	.	.	4dd\
=51	=51	=51	=51
2A\	1e	0.a	1cc
1A	.	.	.
.	2e\	.	1r
1F	1f	.	.
.	.	.	1dd
2F\	2f\	.	.
=52	=52	=52	=52
2.E\	2g\	1r	1ee
.	1e	.	.
4F\	.	.	.
2G\	.	1r	2ee\
2A\	4d\	.	1ff
.	4c\	.	.
1F	1d	1a	.
.	.	.	2ff\
=53	=53	=53	=53
1E	1e	1g	2gg\
.	.	.	1ee
2E\	2e\	2g/	.
1F	1A	1a	4dd\
.	.	.	4cc\
.	.	.	1dd
2F\	2A/	2f/	.
=54	=54	=54	=54
0E	2B\	2g/	2r
.	2c\	2.e/	2g/
.	0B	.	2.b\
.	.	4f/	.
.	.	4g/	.
.	.	4a/	4cc\
2r	.	2b\	2dd\
[2E\	.	[2e/	[2ee\
=55	=55	=55	=55
2E\]	2r	2e/]	2ee\]
1E	2e\	2.a/	4dd\
.	.	.	4cc\
.	1e	.	1b
.	.	4g#i/	.
2E\	.	2g#i/	.
[1F	2c\	[1a	2r
.	[2f\	.	2a/
=56	=56	=56	=56
1F]	2f\]	1a]	2cc\
.	4e\	.	2cc\
.	4d\	.	.
1F	1c	2r	2.cc\
.	.	2a/	.
.	.	.	4dd\
2E\	2r	2g/	2ee\
2D\	2d\	[2a/	[2ff\
=57	=57	=57	=57
2F\	2A/	2a/]	2ff\]
2G\	2B\	2g/	4ee\
.	.	.	4dd\
2A\	1c	2e/	2cc\
2A\	.	2e/	2cc\
1D 1d	1r	2.f/	2.dd\
.	.	4d/	4b\
=58	=58	=58	=58
[0.Al	2r	2e/	0.cc
.	2e\	2a/	.
.	2.f\	1a	.
.	4e\	.	.
.	[1el	[1al	.
=59	=59	=59	=59
0.A]	0.e]	0.a]	0.ccl
!!LO:LB:i:g=z
=60||	=60||	=60||	=60||
*>B	*>B	*>B	*>B
*clefF4	*clefGv2	*clefG2	*clefG2
*k[]	*k[]	*k[]	*k[]
*M2/1	*M2/1	*M2/1	*M2/1
*met(C2)	*met(C2)	*met(C2)	*met(C2)
!!section: Crucifixus
!!!OMD: Crucifixus
1A	0r	0r	0r
2.A\	.	.	.
4B\	.	.	.
=61.	=61.	=61.	=61.
2c\	1r	0r	0r
1d	.	.	.
.	1e	.	.
2c#i\	.	.	.
=62	=62	=62	=62
0d	2f\	0r	0r
.	1f	.	.
.	4e\	.	.
.	4d\	.	.
=63.	=63.	=63.	=63.
2r	1e	0r	0r
2A\	.	.	.
2B-i\	2.d\	.	.
[2B-i\	.	.	.
.	4e\	.	.
=64	=64	=64	=64
2B-\]	4f\	0r	0r
.	4g\	.	.
4A\	1a	.	.
4G\	.	.	.
2F\	.	.	.
2G\	[2g\	.	.
=65.	=65.	=65.	=65.
1A	2g\]	0r	0r
.	2f#i\	.	.
[1G	1g	.	.
=66	=66	=66	=66
1G]	2r	0r	0r
.	1e	.	.
2r	.	.	.
[2A\	[2e\	.	.
=67.	=67.	=67.	=67.
2A\]	2e\]	0r	0r
2A\	2f\	.	.
2B\	2d\	.	.
2G\	[2e\	.	.
=68	=68	=68	=68
1A	2e\]	0r	0r
.	4d\	.	.
.	4c\	.	.
1G	1B	.	.
=69.	=69.	=69.	=69.
1A	2A/	0r	0r
.	2.c\	.	.
2r	.	.	.
.	4d\	.	.
[2A\	2e\	.	.
=70	=70	=70	=70
2A\]	2f\	0r	0r
2B\	2d\	.	.
2G\	2e\	.	.
[2A\	[2f\	.	.
=71.	=71.	=71.	=71.
2A\]	4f\]	0r	0r
.	4e\	.	.
4G\	1d	.	.
4F\	.	.	.
2E\	.	.	.
2E\	2c#i\	.	.
=72	=72	=72	=72
0D	[0d	0f	0a
=73.	=73.	=73.	=73.
2r	0d]	1f	1a
1D	.	.	.
.	.	[1a	[1f
[2D\	.	.	.
=74	=74	=74	=74
2D\]	2r	1a]	1f]
1F	2d\	.	.
.	2c\	1f	1a
2D\	2d\	.	.
=75.	=75.	=75.	=75.
2E\	2B\	1.e	1.g
2C/	2c\	.	.
1G	[1B	.	.
.	.	2d/	2f/
=76	=76	=76	=76
[0D	2B\]	0d	[0f
.	2A/	.	.
.	[1A	.	.
=77.	=77.	=77.	=77.
0D_	0A]	1r	0f]
.	.	1d	.
=78	=78	=78	=78
0D]	0r	2d/	1r
.	.	2.d/	.
.	.	.	1f
.	.	4e/	.
.	.	4f/	.
.	.	4g/	.
=79.	=79.	=79.	=79.
0r	0r	1a	2f/
.	.	.	2.f/
.	.	2a/	.
.	.	.	4g/
.	.	[2f/	4a/
.	.	.	4b\
=80	=80	=80	=80
0r	0r	2f/]	2.cc\
.	.	4e/	.
.	.	4d/	8b/L
.	.	.	8a/J
.	.	2e/	2g/
.	.	2f/	2a/
=81.	=81.	=81.	=81.
0r	0r	1g	1b
.	.	1f	1a
=82	=82	=82	=82
0r	0r	2f/	2a/
.	.	1a	1cc
.	.	4g/	4b\
.	.	4f/	4a/
=83.	=83.	=83.	=83.
1r	0r	2g/	2b\
.	.	2a/	2cc\
1G	.	1b-i	1dd
=84	=84	=84	=84
2A\	0r	0a	0cc
1A	.	.	.
2F\	.	.	.
=85.	=85.	=85.	=85.
1G	1g	0r	0r
4F\	2a\	.	.
4G\	.	.	.
4A\	[2a\	.	.
4B\	.	.	.
=86	=86	=86	=86
2c\	2a\]	0r	0r
2d\	2f\	.	.
2B\	4g\	.	.
.	4f\	.	.
[2c\	4e\	.	.
.	4d\	.	.
=87.	=87.	=87.	=87.
2c\]	2c\	0r	0r
4B\	1f	.	.
4A\	.	.	.
1G	.	.	.
.	2e\	.	.
=88	=88	=88	=88
0F	0f	1a	1cc
.	.	2a/	2cc\
.	.	2a/	2cc\
=89.	=89.	=89.	=89.
0r	0r	2f/	2a/
.	.	2f/	2a/
.	.	1g	1b-i
=90	=90	=90	=90
0r	0r	[0f	1a
.	.	.	2r
.	.	.	[2cc\
=91.	=91.	=91.	=91.
0r	0r	0f]	2cc\]
.	.	.	4b\
.	.	.	4a/
.	.	.	2cc\
.	.	.	2dd\
=92	=92	=92	=92
0r	0r	2r	2ee\
.	.	2f/	2.ff\
.	.	2f/	.
.	.	.	4ee\
.	.	2f/	4dd\
.	.	.	4cc\
=93.	=93.	=93.	=93.
0r	0r	1d	4b\
.	.	.	4a/
.	.	.	1dd
.	.	1e	.
.	.	.	2cc#i\
=94	=94	=94	=94
1f	1r	[0d	0dd
2f\	1a	.	.
2f\	.	.	.
=95.	=95.	=95.	=95.
1f	2a\	0d]	0r
.	2a\	.	.
2r	1a	.	.
2d\	.	.	.
=96	=96	=96	=96
2d\	2r	0r	0r
2d\	2f\	.	.
1A	2f\	.	.
.	2f\	.	.
=97.	=97.	=97.	=97.
2r	1c	0r	0r
2A\	.	.	.
2A\	2r	.	.
[2c\	2c\	.	.
=98	=98	=98	=98
2c\]	2c\	0r	0r
4B\	1e	.	.
4A\	.	.	.
1G	.	.	.
.	4d\	.	.
.	4c\	.	.
=99.	=99.	=99.	=99.
1G	2B\	0r	0r
.	2g\	.	.
1G	2g\	.	.
.	[2e\	.	.
=100	=100	=100	=100
1G	2e\]	0r	0r
.	4d\	.	.
.	4c\	.	.
1G	1B	.	.
=101.	=101.	=101.	=101.
2r	1A	0r	0r
2A\	.	.	.
2B\	2r	.	.
2G\	2e\	.	.
=102	=102	=102	=102
4A\	2f\	0r	0r
4G\	.	.	.
4A\	2d\	.	.
4B\	.	.	.
1c	4e\	.	.
.	4d\	.	.
.	4e\	.	.
.	4f\	.	.
=103.	=103.	=103.	=103.
2B\	2g\	0r	0r
2A\	1a	.	.
1B	.	.	.
.	2g#i\	.	.
=104	=104	=104	=104
[0A	0a	1e	0r
.	.	2e/	.
.	.	2e/	.
=105.	=105.	=105.	=105.
0A]	1r	2.f/	1r
.	.	4e/	.
.	1c	2c/	1ee
.	.	[2a/	.
=106	=106	=106	=106
0r	2c\	2a/]	2ee\
.	2c\	1a	2ee\
.	2.d\	.	2.ff\
.	.	[2a/	.
.	4c\	.	4ee\
=107.	=107.	=107.	=107.
0r	1A	2a/]	2cc\
.	.	1a	1ee
.	2r	.	.
.	2e\	4g/	2ee\
.	.	4f/	.
=108	=108	=108	=108
0r	2c\	2e/	2ee\
.	2A/	1a	4dd\
.	.	.	4cc\
.	1e	.	2b\
.	.	2g#i/	2b\
=109.	=109.	=109.	=109.
1r	[0A	2.a/	2cc\
.	.	.	1cc
.	.	4g/	.
2r	.	2f/	.
2A\	.	[2e/	[2a/
=110	=110	=110	=110
2F\	0A_	4e/]	4a/]
.	.	4d/	4g/
2D\	.	1d	2f/
1A	.	.	2e/
.	.	2c#i/	4f/
.	.	.	4e/
=111.	=111.	=111.	=111.
0D	0A]	1d	1f
.	.	1a	1d
=112	=112	=112	=112
0r	0r	2g/	1r
.	.	2g/	.
.	.	1f	1dd
=113.	=113.	=113.	=113.
0r	0r	1e	2cc\
.	.	.	2cc\
.	.	2r	1b
.	.	2g/	.
=114	=114	=114	=114
0r	0r	2f/	1a
.	.	4e/	.
.	.	4d/	.
.	.	2e/	2r
.	.	2e/	2cc\
=115.	=115.	=115.	=115.
0r	0r	2.d/	2b\
.	.	.	4a/
.	.	4e/	4g/
.	.	4f/	2a/
.	.	4g/	.
.	.	[2a/	2cc\
=116	=116	=116	=116
0r	0r	2a/]	2b\
.	.	1g	4a/
.	.	.	4g/
.	.	.	1a
.	.	2f#i/	.
=117.	=117.	=117.	=117.
0r	0r	1g	2.g/
.	.	.	4a/
.	.	2r	4b\
.	.	.	4cc\
.	.	2f/	[2dd\
=118	=118	=118	=118
0r	0r	2e/	2dd\]
.	.	4d/	2.cc\
.	.	4c/	.
.	.	2d/	.
.	.	.	4b\
.	.	2d/	2b\
=119.	=119.	=119.	=119.
0r	0r	2.c/	2.cc\
.	.	4d/	4b\
.	.	2e/	2g/
.	.	[2f/	[2a/
=120	=120	=120	=120
1r	0r	4f/]	4a/]
.	.	4g/	4e/
.	.	1e	2g/
1D	.	.	1f
.	.	2d/	.
=121.	=121.	=121.	=121.
1A	1r	0e	1e
2G\	1e	.	1r
[2A\	.	.	.
=122	=122	=122	=122
4A\]	1e	0r	0r
4B\	.	.	.
4c\	.	.	.
4d\	.	.	.
2e\	1e	.	.
[2A\	.	.	.
=123.	=123.	=123.	=123.
2A\]	1e	0r	0r
2A\	.	.	.
2G\	1e	.	.
[2A\	.	.	.
=124	=124	=124	=124
2A\]	1e	0r	0r
4G\	.	.	.
4F\	.	.	.
2E\	2e\	.	.
2A\	[2f\	.	.
=125.	=125.	=125.	=125.
2G\	2f\]	0r	0r
2A\	2.e\	.	.
1F	.	.	.
.	4d\	.	.
.	2d\	.	.
=126	=126	=126	=126
1E	1e	0r	0r
1A	2r	.	.
.	2e\	.	.
=127.	=127.	=127.	=127.
1A	2e\	0r	0r
.	2e\	.	.
1A	2f\	.	.
.	4e\	.	.
.	4d\	.	.
=128	=128	=128	=128
1A	2c\	0r	0r
.	2f\	.	.
2A\	2e\	.	.
[2B\	[2d\	.	.
=129.	=129.	=129.	=129.
2B\]	4d\]	0r	0r
.	4c\	.	.
1A	4B\	.	.
.	4A/	.	.
.	1B	.	.
2G#i\	.	.	.
=130	=130	=130	=130
[0A	1A	2r	1.cc
.	.	1a	.
.	1r	.	.
.	.	2g/	2cc\
=131.	=131.	=131.	=131.
0A_	2r	2f/	2cc\
.	1a	2e/	2cc\
.	.	2.f/	1cc
.	2g\	.	.
.	.	4e/	.
=132	=132	=132	=132
0A_	2f\	1c	1a
.	2e\	.	.
.	2f\	1c	1cc
.	4e\	.	.
.	4d\	.	.
=133.	=133.	=133.	=133.
0A]	2c\	1a	2cc\
.	2e\	.	1cc
.	2e\	2a/	.
.	2e\	[2a/	4b\
.	.	.	4a/
=134	=134	=134	=134
2r	2f\	2a/]	2.cc\
2A\	4e\	4g/	.
.	4d\	4f/	4dd\
2A\	4c\	2e/	2ee\
.	4d\	.	.
2A\	4e\	2f/	2a/
.	4f\	.	.
=135.	=135.	=135.	=135.
2G\	2e\	2g/	2ee\
2F\	1d	2a/	2ff\
1E	.	1g	1gg
.	2c#i\	.	.
=136	=136	=136	=136
0D	[0d	2r	1.ff
.	.	1a	.
.	.	2a/	4ee\
.	.	.	4dd\
=137.	=137.	=137.	=137.
2r	0d_	2b\	0dd
2G\	.	1b	.
1G	.	.	.
.	.	2g/	.
=138	=138	=138	=138
2F\	0d]	4a/	1r
.	.	4g/	.
2G\	.	4f/	.
.	.	4e/	.
1D	.	1f	1a
=139.	=139.	=139.	=139.
2.G\	1r	1g	2b\
.	.	.	1b
4A\	.	.	.
4B\	1d	2r	.
4c\	.	.	.
[2d\	.	2b\	4a/
.	.	.	4g/
=140	=140	=140	=140
4d\]	2d\	2a/	2f#i/
4c\	.	.	.
2B\	2d\	2g/	1g
1A	1c	1a	.
.	.	.	2f#i/
=141.	=141.	=141.	=141.
1G	1d	1.b	1g
2r	[1d	.	1b
2G\	.	4a/	.
.	.	4g/	.
=142	=142	=142	=142
2D\	1d]	2f#i/	2a/
2G\	.	1g	2g/
1A	1c	.	1cc
.	.	2f#i/	.
=143.	=143.	=143.	=143.
0G	2d\	0g	0b
.	2B\	.	.
.	2d\	.	.
.	[2e\	.	.
=144	=144	=144	=144
1r	2e\]	1r	1r
.	4d\	.	.
.	4c\	.	.
1G	1B	1g	1b
=145.	=145.	=145.	=145.
1F	1A	1a	1cc
1F	1f	1a	1cc
=146	=146	=146	=146
0F	1f	1a	1.cc
.	1f	[1a	.
.	.	.	4b\
.	.	.	4a/
=147.	=147.	=147.	=147.
0F	1.f	2a/]	0a
.	.	4g/	.
.	.	4f/	.
.	.	1f	.
.	4e\	.	.
.	4d\	.	.
=148	=148	=148	=148
2r	0c	2r	0r
2F\	.	2f/	.
2F\	.	2a/	.
2E\	.	2g/	.
=149.	=149.	=149.	=149.
1F	2r	1f	2r
.	2f\	.	2a/
1r	2f\	1r	2cc\
.	2g\	.	2b\
=150	=150	=150	=150
1F	1a	2r	1a
.	.	2f/	.
2F\	1r	2f/	1r
2A\	.	2f/	.
=151.	=151.	=151.	=151.
2A\	1r	2f/	1r
2G\	.	2e/	.
[1F	2r	2.f/	1a
.	2f\	.	.
.	.	4e/	.
=152	=152	=152	=152
1F]	2f\	1c	2a/
.	2f\	.	2a/
1r	2f\	1r	2cc\
.	2g\	.	2b\
=153.	=153.	=153.	=153.
1.F	1a	0r	2a/
.	.	.	2.cc\
.	1a	.	.
.	.	.	4dd\
4E\	.	.	4ee\
4D\	.	.	4ff\
=154	=154	=154	=154
2E\	2g\	1r	2gg\
2F\	2a\	.	1ff
1c	1g	2cc\	.
.	.	[2cc\	2ee\
=155.	=155.	=155.	=155.
1F	0f	2cc\]	0ff
.	.	2b\	.
2d\	.	2a/	.
[2d\	.	2g/	.
=156	=156	=156	=156
2d\]	1r	2.f/	1r
2c\	.	.	.
.	.	4e/	.
2B\	1f	1d	1ff
2A\	.	.	.
=157.	=157.	=157.	=157.
2.G\	1g	2r	2ee\
.	.	1g	1ee
4F\	.	.	.
1E	1g	.	.
.	.	2f/	2dd\
=158	=158	=158	=158
2A\	0a	2.e/	2.cc\
1A	.	.	.
.	.	4d/	4b\
.	.	2c/	[1a
2G\	.	2B/	.
=159.	=159.	=159.	=159.
2.F\	1r	0A	1a]
4E\	.	.	.
[1D	1f	.	2dd\
.	.	.	[2dd\
=160	=160	=160	=160
1D]	1f	1d	2dd\]
.	.	.	2cc\
1D	1f	1d	2.b\
.	.	.	4a/
=161.	=161.	=161.	=161.
[0E	0g	0B	2g/
.	.	.	2f/
.	.	.	1e
=162	=162	=162	=162
0E_	[0e	2r	2ee\
.	.	2g/	1ee
.	.	2.g/	.
.	.	.	2dd\
.	.	4f/	.
=163.	=163.	=163.	=163.
0E_	0e]	2e/	2cc\
.	.	2d/	2b\
.	.	2c/	2cc\
.	.	2G/	4b\
.	.	.	4a/
=164	=164	=164	=164
0E]	0r	2e/	2g/
.	.	4d/	1a
.	.	4c/	.
.	.	1B	.
.	.	.	2g#i/
=165.	=165.	=165.	=165.
2r	2a\	0A	[0a
2.A\	1a	.	.
4B\	.	.	.
2c\	2g\	.	.
=166	=166	=166	=166
2d\	2f\	0r	0a]
2c\	2e\	.	.
2d\	2f\	.	.
4c\	4e\	.	.
4B\	4d\	.	.
=167.	=167.	=167.	=167.
1.A	2.c\	1r	0r
.	4d\	.	.
.	2e\	1a	.
2F\	2f\	.	.
=168	=168	=168	=168
4G\	4e\	1g	0r
4F\	4d\	.	.
4E\	1d	.	.
4D\	.	.	.
1E	.	1g	.
.	2c#i\	.	.
=169.	=169.	=169.	=169.
1D	[0d	1f	1r
2r	.	2r	1a
2D\	.	2f/	.
=170	=170	=170	=170
1G	0d_	2b-\	1g
.	.	1b-i	.
1G	.	.	1g
.	.	4a/	.
.	.	4g/	.
=171.	=171.	=171.	=171.
1D	0d]	2a/	2f/
.	.	2.f/	2.a/
2r	.	.	.
.	.	4g/	4g/
2D\	.	4a/	2f/
.	.	4f/	.
=172	=172	=172	=172
2C/	0r	2g/	2e/
2.D\	.	1f	2d/
.	.	.	4f/
4E\	.	.	4g/
4F\	.	4e/	4a/
4G\	.	4d/	4b\
=173.	=173.	=173.	=173.
2A\	1r	2c/	2cc\
2F\	.	2d/	2.a/
1G	[1d	1B	.
.	.	.	4g/
.	.	.	2g/
=174	=174	=174	=174
1D	1d]	1A	2f/
.	.	.	2a/
[1G	1d	1B-i	2g/
.	.	.	[2b-i\
=175.	=175.	=175.	=175.
2G\]	0d	2G/	2b-\]
2F\	.	2A/	2.a/
1G	.	1B-i	.
.	.	.	4g/
.	.	.	2g/
=176	=176	=176	=176
1D	1f	0A	1a
2r	2r	.	2r
2D\	2f\	.	2a/
=177.	=177.	=177.	=177.
1A	1f	0r	1cc
1B-	1f	.	1dd
=178	=178	=178	=178
1c	1e	1r	1ee
1c	1e	1a	1ee
=179.	=179.	=179.	=179.
2d\	0d	2a/	2ff\
2.D\	.	1a	1ff
4E\	.	.	.
4F\	.	4g/	4ee\
4G\	.	4f/	4dd\
=180	=180	=180	=180
2A\	1r	2e/	2cc\
2B\	.	2d/	1dd
2G\	1d	1g	.
2B\	.	.	2b\
=181.	=181.	=181.	=181.
2A\	2e\	1a	2cc\
2F\	2.f\	.	2.a/
1A	.	1f	.
.	4e\	.	4b\
.	2c\	.	2cc\
=182	=182	=182	=182
2G\	2d\	1g	2b\
2E\	2.e\	.	2.g/
1G	.	1e	.
.	4d\	.	4a/
.	2B\	.	4b\
.	.	.	4g/
=183.	=183.	=183.	=183.
2F\	2c\	1f	2a/
2D\	2.d\	.	2.f/
1F	.	1d	.
.	4c\	.	4g/
.	2A/	.	2a/
=184	=184	=184	=184
0E	2B\	2.e/	2g/
.	1c	.	1e
.	.	4f/	.
.	.	2g/	.
.	4B\	[2g/	[2ee\
.	4A/	.	.
=185.	=185.	=185.	=185.
1G	1B	2g/]	2ee\]
.	.	2g/	2dd\
2A\	2r	2e/	2cc\
2E\	[2B\	[2g/	[2b\
=186	=186	=186	=186
2G\	2B\]	2g/]	4b\]
.	.	.	4a/
2F\	2A/	2a/	1dd
2G\	2B\	2g/	.
2A\	2c\	2e/	2cc\
=187.	=187.	=187.	=187.
2F\	2A/	2f/	1dd
2G\	1d	2d/	.
1E	.	1g	1ee
.	2c#i\	.	.
=188	=188	=188	=188
2D\	1d	2f/	2ff\
2F\	.	2.a/	2dd\
1E	1c	.	2ee\
.	.	4g/	.
.	.	2e/	[2gg\
=189.	=189.	=189.	=189.
1D	2.d\	2f/	4gg\]
.	.	.	4ff\
.	.	2d/	1ff
.	4c\	.	.
2.F\	4d\	2a/	.
.	4e\	.	.
.	[2f\	[2a/	4ee\
4G\	.	.	4dd\
=190	=190	=190	=190
2A\	2f\]	2a/]	2cc\
2B-i\	4e\	2g/	2.dd\
.	4d\	.	.
1A	1e	1a	.
.	.	.	4cc#i\
.	.	.	2cc#i\
=191.	=191.	=191.	=191.
0D	[0dl	2a/	0dd
.	.	2.f/	.
.	.	4e/	.
.	.	[2d/	.
=192	=192	=192	=192
[0Dl	0d_	2d/]	[0ddl
.	.	4c/	.
.	.	4B/	.
.	.	1A	.
=193.	=193.	=193.	=193.
0D]	0d]	0Al	0dd]
==	==	==	==
*-	*-	*-	*-
!!!RDF**kern: l=long note in original notation
!!!RDF**kern: i=editorial accidental
!!!ENC:	Chris Gage 03-26-2013
!!!END:	2013/07/27/
!!!EED:	Jesse Rodin
!!!EEV:	2013/08/05/
!!!ONB:	Translated from MusicXML and edited on 2013/08/05/ by Craig Sapp
!!muse2ps: T^@{OPR}^u^@{ONM}{. }@{OTL}^C^@{COM}^i2I150v85,85,85,150Q8c95
